X: 190
T: Hob and his Nob
%R: reel, hornpipe
M: C
L: 1/8
Z: 2014 John Chambers <jc:trillian.mit.edu>
B: Chas & Sam Thompson "Twenty Four Country Dances for the Year 1772", London 1772, p.95
F: http://folkopedia.efdss.org/images/8/89/Thompson_24_1772.PDF
K: D
|:\
d2AG F2f2 | (e>cB>A) (e>cB>A) |\
d2AG F2d2 | cBA^G A4 :|\
|:\
A2Bc d2B2 | AFED A4 |\
BGe2 AFd2 | Egfc d4 :|
% - - - - - - - - - - - - - - - - - - - - - - - - -
%%begintext align
%% The first Man sets to the 2d Wo: and turns
%% her .|. her Partner does the same with the
%% 2d Man the first Cu: cross over two Cu:
%% and lead up and cast of .|: :|:
%%endtext
% - - - - - - - - - - - - - - - - - - - - - - - - -

%%sep 1 1 500
%%sep 1 1 500
